src/dsmComponents/Icons/device-mobile-20px.svg

<?xml version="1.0" encoding="UTF-8"?>
<svg width="13px" height="20px" viewBox="0 0 13 20" version="1.1" xmlns="http://www.w3.org/2000/svg" xmlns:xlink="http://www.w3.org/1999/xlink">
    <!-- Generator: Sketch 59.1 (86144) - https://sketch.com -->
    <title>device-mobile-20px</title>
    <desc>Created with Sketch.</desc>
    <defs>
        <path d="M10.5,0 C11.8807119,-2.53632657e-16 13,1.11928813 13,2.5 L13,17.5 C13,18.8807119 11.8807119,20 10.5,20 L2.5,20 C1.11928813,20 1.69088438e-16,18.8807119 0,17.5 L0,2.5 C-1.69088438e-16,1.11928813 1.11928813,2.53632657e-16 2.5,0 L10.5,0 Z M9.82952992,1.93120035 L3.22259446,1.93120035 C2.53223852,1.93120035 1.97259446,2.49084442 1.97259446,3.18120035 L1.97259446,3.18120035 L1.97259446,16.875 C1.97259446,17.5653559 2.53223852,18.125 3.22259446,18.125 L3.22259446,18.125 L9.82952992,18.125 C10.5198859,18.125 11.0795299,17.5653559 11.0795299,16.875 L11.0795299,16.875 L11.0795299,3.18120035 C11.0795299,2.49084442 10.5198859,1.93120035 9.82952992,1.93120035 L9.82952992,1.93120035 Z M4.525,15.625 L8.475,15.625 C8.82017797,15.625 9.1,15.904822 9.1,16.25 C9.1,16.595178 8.82017797,16.875 8.475,16.875 L4.525,16.875 C4.17982203,16.875 3.9,16.595178 3.9,16.25 C3.9,15.904822 4.17982203,15.625 4.525,15.625 Z" id="path-1"></path>
    </defs>
    <g id="Final" stroke="none" stroke-width="1" fill="none" fill-rule="evenodd">
        <g id="All-Nucleo-Icons" transform="translate(-467.000000, -2071.000000)">
            <g id="Solo/Nucleo/20px/device-mobile" transform="translate(461.000000, 2069.000000)">
                <g transform="translate(6.000000, 2.000000)" id="phone-button-(custom)">
                    <g>
                        <g id="Colour/Default-Colour">
                            <mask id="mask-2" fill="white">
                                <use xlink:href="#path-1"></use>
                            </mask>
                            <g id="Mask" fill-rule="nonzero"></g>
                            <g id="colour/neutral/chia" mask="url(#mask-2)" fill="#737373">
                                <g transform="translate(-26.000000, -23.000000)" id="Colour">
                                    <rect x="0" y="0" width="64" height="64"></rect>
                                </g>
                            </g>
                        </g>
                    </g>
                </g>
            </g>
        </g>
    </g>
</svg>

<svg width="13" height="20" xmlns="http://www.w3.org/2000/svg" xmlns:xlink="http://www.w3.org/1999/xlink"><defs><path d="M10.5 0A2.5 2.5 0 0113 2.5v15a2.5 2.5 0 01-2.5 2.5h-8A2.5 2.5 0 010 17.5v-15A2.5 2.5 0 012.5 0h8zm-.67 1.931H3.223c-.69 0-1.25.56-1.25 1.25v13.694c0 .69.56 1.25 1.25 1.25H9.83c.69 0 1.25-.56 1.25-1.25V3.181c0-.69-.56-1.25-1.25-1.25zM4.525 15.625h3.95a.625.625 0 110 1.25h-3.95a.625.625 0 110-1.25z" id="device-mobile-20px_svg__a"/></defs><use fill="#737373" xlink:href="#device-mobile-20px_svg__a" fill-rule="evenodd"/></svg>
